X: 042
T: Miss Lowis's Reel
C: by John Pringle
B: John Pringle "Collection of Reels Strathspeys & Jigs", 1801 p.4#2
Z: 2011 John Chambers <jc:trillian.mit.edu>
R: reel
M: C|
L: 1/8
K: G
V: 1
D | B,G,G,B cABG | EAAG FDDC | B,G,G,G FGAc | BGFA G2G :|
c | BGdB eAAc | BGEA FDDc | BGdB ceAc | (E/F/G) AF ~G2GB |
    cEAG FADF | GBAc BdGB | ecAd BGFA | (E/F/G) AF G2G |]
V: 2 clef=bass middle=d
z | G2G2  A2G2 | c2^c2 d2D2 | G2G2 d2d2 | g2d2 G2g :|
z | g2b2  a2f2 | g2^c2 d2D2 | g2b2 a2d2 | c2d2 G2G2 |
    c2^c2 d2f2 | g2a2  g2G2 | c2d2 G2d2 | c2d2 G2G |]

%%sep 2 1 500

